assets/img/icons/quiz-check.svg

<svg width="60" height="44" viewBox="0 0 60 44" fill="none" xmlns="http://www.w3.org/2000/svg">
<path d="M20.1995 36.0615L54.7534 1.50769C55.3483 0.912827 56.0547 0.608958 56.8726 0.596091C57.6906 0.583291 58.4098 0.887161 59.0302 1.50769C59.6508 2.12816 59.961 2.84096 59.961 3.64609C59.961 4.45116 59.6508 5.16396 59.0302 5.7845L22.7302 42.0844C22.0072 42.8075 21.1636 43.169 20.1995 43.169C19.2355 43.169 18.3919 42.8075 17.6688 42.0844L0.968837 25.3845C0.37397 24.7896 0.0803703 24.0832 0.088037 23.2653C0.0957703 22.4474 0.409871 21.7282 1.03034 21.1077C1.65087 20.4872 2.36367 20.1769 3.16874 20.1769C3.97387 20.1769 4.68667 20.4872 5.30714 21.1077L20.1995 36.0615Z" fill="white"/>
</svg>

<svg width="60" height="44" fill="none" xmlns="http://www.w3.org/2000/svg"><path d="M20.2 36.062L54.752 1.508c.595-.595 1.302-.899 2.12-.912.818-.013 1.537.291 2.157.912.62.62.931 1.333.931 2.138 0 .805-.31 1.518-.93 2.139l-36.3 36.3c-.724.722-1.567 1.084-2.532 1.084-.964 0-1.807-.361-2.53-1.085l-16.7-16.7c-.595-.594-.889-1.3-.881-2.119.008-.818.322-1.537.942-2.157.62-.62 1.334-.931 2.139-.931.805 0 1.518.31 2.138.93L20.2 36.063z" fill="#fff"/></svg>
